X:1
T:Partition sans titre
C:Compositeur / Arrangeur
L:1/8
M:4/4
I:linebreak $
K:D
V:1 treble nm="Violon" snm="Vln."
V:1
"Bm" fBBA Bcdc | BFFE FBdB |"A" cAeA fAeA |"Bm" d2 ef gfed |"Bm" fBBA Bcdc | BFFE FBdB | %6
"A" cAeA fAef |1"Bm" dBBA B4 :|2"Bm" dBBA Bdef |:"A7" gfed cAce | aefe dcBA | G2 Bc"Bm" dcBA | %12
 FBBA Bdef |"A7" gfed cAce | aefe dcBA | cAeA fAef |1"Bm" dBBA Bdef :|2"Bm" dBBA B4 |] %18
